pk/healthy-recognition.svg

<svg viewBox="0 0 48 48" fill="none" xmlns="http://www.w3.org/2000/svg" height="1em" width="1em">
  <path d="M6 33V39C6 40.6569 7.34315 42 9 42H15" stroke="black" stroke-width="4" stroke-linecap="round" stroke-linejoin="round"/>
  <path d="M33 42H39C40.6569 42 42 40.6569 42 39V33" stroke="black" stroke-width="4" stroke-linecap="round" stroke-linejoin="round"/>
  <path d="M42 15V9C42 7.34315 40.6569 6 39 6H33" stroke="black" stroke-width="4" stroke-linecap="round" stroke-linejoin="round"/>
  <path d="M6 15V9C6 7.34315 7.34315 6 9 6H15" stroke="black" stroke-width="4" stroke-linecap="round" stroke-linejoin="round"/>
  <path d="M34 24.0001L24 34.0001C24 34.0001 15.0002 25.0001 14 24.0001C12.9998 23.0001 12.5 21.0001 14 19.0001C15.5 17.0001 18.5 17.0001 20 18.0001C21.5001 19.0001 22.0001 20.0001 24 20.0001C26 20.0001 26.5001 19.0001 28 18.0001C29.5 17.0001 32.5003 17.0001 34.0003 19.0001C35.5003 21.0001 35 23.0001 34 24.0001Z" fill="#2F88FF" stroke="black" stroke-width="4" stroke-linecap="round" stroke-linejoin="round"/>
</svg>

<svg viewBox="0 0 48 48" fill="none" xmlns="http://www.w3.org/2000/svg" height="1em" width="1em">
  <path d="M6 33v6a3 3 0 0 0 3 3h6m18 0h6a3 3 0 0 0 3-3v-6m0-18V9a3 3 0 0 0-3-3h-6M6 15V9a3 3 0 0 1 3-3h6" stroke="#000" stroke-width="4" stroke-linecap="round" stroke-linejoin="round"/>
  <path d="M34 24 24 34 14 24c-1-1-1.5-3 0-5s4.5-2 6-1 2 2 4 2 2.5-1 4-2 4.5-1 6 1 1 4 0 5Z" fill="#2F88FF" stroke="#000" stroke-width="4" stroke-linecap="round" stroke-linejoin="round"/>
</svg>
